packages/symbols/svgs/outline/trophy-outline.svg

<svg width="24" height="24" viewBox="0 0 24 24" fill="none" xmlns="http://www.w3.org/2000/svg">
<path fill-rule="evenodd" clip-rule="evenodd" d="M1 1C1 0.447715 1.44772 0 2 0H6C6.55228 0 7 0.447715 7 1C7 1.55228 6.55228 2 6 2H3V6C3 6.53043 3.21071 7.03914 3.58579 7.41421C3.96086 7.78929 4.46957 8 5 8H6C6.55228 8 7 8.44772 7 9C7 9.55229 6.55228 10 6 10H5C3.93913 10 2.92172 9.57857 2.17157 8.82843C1.42143 8.07828 1 7.06087 1 6V1Z" fill="black"/>
<path fill-rule="evenodd" clip-rule="evenodd" d="M17 1C17 0.447715 17.4477 0 18 0H22C22.5523 0 23 0.447715 23 1V6C23 7.06087 22.5786 8.07828 21.8284 8.82843C21.0783 9.57857 20.0609 10 19 10H18C17.4477 10 17 9.55229 17 9C17 8.44772 17.4477 8 18 8H19C19.5304 8 20.0391 7.78929 20.4142 7.41421C20.7893 7.03914 21 6.53043 21 6V2H18C17.4477 2 17 1.55228 17 1Z" fill="black"/>
<path fill-rule="evenodd" clip-rule="evenodd" d="M12 14C12.5523 14 13 14.4477 13 15V19C13 19.5523 12.5523 20 12 20C11.4477 20 11 19.5523 11 19V15C11 14.4477 11.4477 14 12 14Z" fill="black"/>
<path fill-rule="evenodd" clip-rule="evenodd" d="M5 1C5 0.447715 5.44772 0 6 0H18C18.5523 0 19 0.447715 19 1V9C19 10.8565 18.2625 12.637 16.9497 13.9497C15.637 15.2625 13.8565 16 12 16C10.1435 16 8.36301 15.2625 7.05025 13.9497C5.7375 12.637 5 10.8565 5 9V1ZM7 2V9C7 10.3261 7.52678 11.5979 8.46447 12.5355C9.40215 13.4732 10.6739 14 12 14C13.3261 14 14.5979 13.4732 15.5355 12.5355C16.4732 11.5979 17 10.3261 17 9V2H7Z" fill="black"/>
<path fill-rule="evenodd" clip-rule="evenodd" d="M10 20C9.20435 20 8.44129 20.3161 7.87868 20.8787C7.55927 21.1981 7.31933 21.5821 7.17157 22H16.8284C16.6807 21.5821 16.4407 21.1981 16.1213 20.8787C15.5587 20.3161 14.7956 20 14 20H10ZM6.46447 19.4645C7.40215 18.5268 8.67392 18 10 18H14C15.3261 18 16.5979 18.5268 17.5355 19.4645C18.4732 20.4021 19 21.6739 19 23C19 23.5523 18.5523 24 18 24H6C5.44772 24 5 23.5523 5 23C5 21.6739 5.52678 20.4021 6.46447 19.4645Z" fill="black"/>
</svg>

<svg width="24" height="24" viewBox="0 0 24 24" xmlns="http://www.w3.org/2000/svg"><path fill-rule="evenodd" clip-rule="evenodd" d="M1 1a1 1 0 0 1 1-1h4a1 1 0 0 1 0 2H3v4a2 2 0 0 0 2 2h1a1 1 0 0 1 0 2H5a4 4 0 0 1-4-4V1Zm16 0a1 1 0 0 1 1-1h4a1 1 0 0 1 1 1v5a4 4 0 0 1-4 4h-1a1 1 0 1 1 0-2h1a2 2 0 0 0 2-2V2h-3a1 1 0 0 1-1-1Zm-5 13a1 1 0 0 1 1 1v4a1 1 0 1 1-2 0v-4a1 1 0 0 1 1-1Z"/><path fill-rule="evenodd" clip-rule="evenodd" d="M5 1a1 1 0 0 1 1-1h12a1 1 0 0 1 1 1v8A7 7 0 1 1 5 9V1Zm2 1v7a5 5 0 1 0 10 0V2H7Zm3 18a3 3 0 0 0-2.828 2h9.656A2.999 2.999 0 0 0 14 20h-4Zm-3.536-.535A5 5 0 0 1 10 18h4a5 5 0 0 1 5 5 1 1 0 0 1-1 1H6a1 1 0 0 1-1-1 5 5 0 0 1 1.464-3.535Z"/></svg>
